X: 1
T: the Long, Hot Shower
C: by Betsy Branch
R: jig
Z: 2012 John Chambers <jc:trillian.mit.edu>
B: the Portland Collection v.2 p.118
M: 6/8
L: 1/8
K: Dmix
A |\
"D"cdd dcA | cdA "C"G3 | "D"FED F2G | "Am"ABA cec |
"D"cdd dcA | cdA "C"G3 | "D"FED "Am"CEC | "D"D3 D3 :|
|: (^A, |\
"G7"B,2)D =FED | ABA =FED | B,2D =FED | "D"A,B,A, A,2(^A, | "G7"B,2)D =FED |
"G7"ABA A3 |1 "Am"dcA G2A | "D"=FED D2 :|2 "Am"GFG AGA | cAc cec |]
